X: 0225
T: Trinity Hall
C: Nan Main
N: Tune for Lady Susan Stewart's Strathspey
B: Miss Milligan's Miscellany v.2 #25
Z: 2019 John Chambers <jc:trillian.mit.edu>
M: 4/4
L: 1/8
R: strathspey
K: Am
%
c/d/ |\
"Am"e>d c>A "E7"^G<E "Am"A2 | "Am"c>d e<f "E7"e3 (3d/c/B/ |\
"Am"A>B c>d e<a e>d | "Am"c>A "E7"B<E "Am"A3 c/d/ ||
"Am"e>d c>A "E7"^G<E "Am"A2 | "Am"c>d e<a "E7"e3 d |\
"Am"c>E "E7"B>E "Am"(3ABc "Dm"(3def | "Am"e<E "E7"c>B "Am"A3 c |]
"Am"e<a a>b "C"ag ec | "G"B<d d>g d3 d |\
"Em"e>^f g>f (3edc (3BAG | "B7"F<B, G>F "Em"E3 "(E7)"E ||
"Am"A>B c<A "E7"Bc df | "Am"e<c B>A "E7"^G3 E |\
"Am"ABc "Dm"(3def "Am"e<a "E7"e>d | "Am"c>A "E7"^G<E "Am"A3 :|
